assets/v1/icons/scala.svg

<svg xmlns="http://www.w3.org/2000/svg" width="16" height="16" viewBox="0 0 16 16">
  <g fill="none" fill-rule="evenodd">
    <polygon fill="#9AA7B0" fill-opacity=".8" points="7 1 3 5 7 5"/>
    <path fill="#9AA7B0" fill-opacity=".8" d="M13,8.45529962 C10.7296367,8.73784013 8,8.89029027 8,8.99187761 L8,15 L3,15 L3,6 L8,6 L8,1 L13,1 L13,8.45529962 Z"/>
    <path fill="#DF2621" fill-rule="nonzero" d="M9 11.6220741C9 11.4699002 16 11.1655524 16 10.426422L16 9C16 9.76086957 9 10.0434783 9 10.1956522L9 11.6220741zM9 15.6220741C9 15.4699002 16 15.1655524 16 14.426422L16 13C16 13.7608696 9 14.0434783 9 14.1956522L9 15.6220741zM9 13.6220741C9 13.4699002 16 13.1655524 16 12.426422L16 11C16 11.7608696 9 12.0434783 9 12.1956522L9 13.6220741z"/>
  </g>
</svg>

<svg xmlns="http://www.w3.org/2000/svg" width="16" height="16" viewBox="0 0 16 16"><g fill="none" fill-rule="evenodd"><path fill="#9AA7B0" fill-opacity=".8" d="M7 1 3 5h4z"/><path fill="#9AA7B0" fill-opacity=".8" d="M13 8.455c-2.27.283-5 .435-5 .537V15H3V6h5V1h5z"/><path fill="#DF2621" fill-rule="nonzero" d="M9 11.622c0-.152 7-.456 7-1.196V9c0 .76-7 1.043-7 1.196zm0 4c0-.152 7-.456 7-1.196V13c0 .76-7 1.043-7 1.196zm0-2c0-.152 7-.456 7-1.196V11c0 .76-7 1.043-7 1.196z"/></g></svg>
